other/arknights.svg

<?xml version="1.0" encoding="UTF-8" standalone="no"?>
<svg
   viewBox="0 0 48 48"
   version="1.1"
   id="svg8"
   sodipodi:docname="arknights.svg"
   inkscape:version="1.1 (c68e22c387, 2021-05-23)"
   xmlns:inkscape="http://www.inkscape.org/namespaces/inkscape"
   xmlns:sodipodi="http://sodipodi.sourceforge.net/DTD/sodipodi-0.dtd"
   xmlns="http://www.w3.org/2000/svg"
   xmlns:svg="http://www.w3.org/2000/svg">
  <sodipodi:namedview
     id="namedview10"
     pagecolor="#4a4a4a"
     bordercolor="#666666"
     borderopacity="1.0"
     inkscape:pageshadow="2"
     inkscape:pageopacity="0"
     inkscape:pagecheckerboard="true"
     showgrid="false"
     inkscape:zoom="32"
     inkscape:cx="19.53125"
     inkscape:cy="30.078125"
     inkscape:window-width="1271"
     inkscape:window-height="1003"
     inkscape:window-x="1064"
     inkscape:window-y="553"
     inkscape:window-maximized="0"
     inkscape:current-layer="svg8"
     inkscape:object-nodes="true"
     inkscape:object-paths="true"
     showguides="false"
     inkscape:lockguides="true">
    <sodipodi:guide
       position="24.287337,-21.019436"
       inkscape:color="rgb(167,0,255)"
       inkscape:label="Measure"
       orientation="0.707107,0.707107"
       id="guide3035"
       inkscape:locked="true" />
    <sodipodi:guide
       position="23.4184,-20.1505"
       inkscape:color="rgb(167,0,255)"
       inkscape:label=""
       orientation="-0,1"
       id="guide3037"
       inkscape:locked="true" />
    <sodipodi:guide
       position="23.4184,-20.1505"
       inkscape:color="rgb(167,0,255)"
       inkscape:label="Start"
       orientation="1,0"
       id="guide3039"
       inkscape:locked="true" />
    <sodipodi:guide
       position="25.0862,-21.8183"
       inkscape:color="rgb(167,0,255)"
       inkscape:label="End"
       orientation="-0,1"
       id="guide3041"
       inkscape:locked="true" />
    <sodipodi:guide
       position="25.0862,-21.8183"
       inkscape:color="rgb(167,0,255)"
       inkscape:label=""
       orientation="1,0"
       id="guide3043"
       inkscape:locked="true" />
    <sodipodi:guide
       position="27.1922,-22.4187"
       inkscape:color="rgb(167,0,255)"
       inkscape:label="Measure"
       orientation="-0.707107,0.707107"
       id="guide3045"
       inkscape:locked="true" />
    <sodipodi:guide
       position="27.1922,-22.4187"
       inkscape:color="rgb(167,0,255)"
       inkscape:label=""
       orientation="-0,1"
       id="guide3047"
       inkscape:locked="true" />
    <sodipodi:guide
       position="27.1922,-22.4187"
       inkscape:color="rgb(167,0,255)"
       inkscape:label="Start"
       orientation="1,0"
       id="guide3049"
       inkscape:locked="true" />
    <sodipodi:guide
       position="28.6008,-21.0101"
       inkscape:color="rgb(167,0,255)"
       inkscape:label="End"
       orientation="-0,1"
       id="guide3051"
       inkscape:locked="true" />
    <sodipodi:guide
       position="28.6008,-21.0101"
       inkscape:color="rgb(167,0,255)"
       inkscape:label=""
       orientation="1,0"
       id="guide3053"
       inkscape:locked="true" />
  </sodipodi:namedview>
  <defs
     id="defs4">
    <style
       id="style2">.a{fill:none;stroke:#fff;stroke-linecap:round;stroke-linejoin:round;}</style>
    <style
       id="style822">.cls-1{fill:none;stroke:#000;stroke-linecap:round;stroke-linejoin:round;}</style>
    <style
       id="style913">.cls-1{fill:none;stroke:#fff;stroke-linecap:round;stroke-linejoin:round;}</style>
  </defs>
  <path
     class="a"
     d="m 40.5,5.5 h -33 a 2,2 0 0 0 -2,2 v 33 a 2,2 0 0 0 2,2 h 33 a 2,2 0 0 0 2,-2 v -33 a 2,2 0 0 0 -2,-2 z"
     id="path6"
     style="display:inline;fill:none;fill-opacity:1"
     sodipodi:insensitive="true" />
  <path
     style="font-variation-settings:normal;opacity:1;vector-effect:none;fill:none;fill-opacity:1;stroke:#ffffff;stroke-width:1;stroke-linecap:round;stroke-linejoin:round;stroke-miterlimit:4;stroke-dasharray:none;stroke-dashoffset:0;stroke-opacity:1;-inkscape-stroke:none;stop-color:#000000;stop-opacity:1"
     d="m 30.533865,14.055777 c -1.610956,4.615716 -3.755772,7.964306 -5.864542,11.155378 -0.155752,-2.924848 -0.565583,-5.388631 -0.478088,-7.904382 -0.760656,1.800381 -1.65302,3.450239 -1.848606,5.896414 -0.708873,-2.97552 -1.31437,-6.083951 -1.434262,-9.816733 -1.593626,3.441715 -3.187251,5.749568 -4.780877,7.936255 0.670879,3.406264 1.659258,6.583927 4.430279,8.478088 -1.939035,0.003 -2.547357,-0.566464 -3.633466,-1.243028 l 6.119522,10.645418 C 19.115652,36.972122 15.413793,33.439746 11.824701,29.258964"
     id="path879"
     sodipodi:nodetypes="cccccccccc" />
  <path
     style="font-variation-settings:normal;opacity:1;vector-effect:none;fill:none;fill-opacity:1;stroke:#ffffff;stroke-width:1;stroke-linecap:round;stroke-linejoin:round;stroke-miterlimit:4;stroke-dasharray:none;stroke-dashoffset:0;stroke-opacity:1;-inkscape-stroke:none;stop-color:#000000;stop-opacity:1"
     d="m 30.533865,14.055777 c 0.91121,3.342002 1.082161,6.459683 -0.796813,8.956175"
     id="path1617"
     sodipodi:nodetypes="cc" />
  <path
     style="font-variation-settings:normal;opacity:1;vector-effect:none;fill:none;fill-opacity:1;stroke:#ffffff;stroke-width:1;stroke-linecap:round;stroke-linejoin:round;stroke-miterlimit:4;stroke-dasharray:none;stroke-dashoffset:0;stroke-opacity:1;-inkscape-stroke:none;stop-color:#000000;stop-opacity:1"
     d="m 30.961498,15.919246 c 2.50208,4.442132 3.032185,14.413996 -2.594964,15.060834 1.320134,0.430699 2.874403,0.303076 5.290837,-1.880478 0.07352,2.65183 -1.8037,4.116253 -3.633467,5.609561"
     id="path1709"
     sodipodi:nodetypes="cccc" />
  <path
     style="font-variation-settings:normal;opacity:1;vector-effect:none;fill:none;fill-opacity:1;stroke:#ffffff;stroke-width:1;stroke-linecap:round;stroke-linejoin:round;stroke-miterlimit:4;stroke-dasharray:none;stroke-dashoffset:0;stroke-opacity:1;-inkscape-stroke:none;stop-color:#000000;stop-opacity:1"
     d="m 41.927368,6.0990646 c 0,0 -1.711655,1.8654408 -3.584739,2.251533 -1.572047,0.3240405 -5.112567,1.5239853 -4.270916,3.0597614 0.523621,0.955461 5.495578,8.383029 4.908367,17.752988 -0.18972,3.027303 2.350689,8.936113 3.51992,9.219248"
     id="path2105"
     sodipodi:nodetypes="csssc" />
  <path
     style="font-variation-settings:normal;opacity:1;vector-effect:none;fill:none;fill-opacity:1;stroke:#ffffff;stroke-width:1;stroke-linecap:round;stroke-linejoin:round;stroke-miterlimit:4;stroke-dasharray:none;stroke-dashoffset:0;stroke-opacity:1;-inkscape-stroke:none;stop-color:#000000;stop-opacity:1"
     d="M 34.144173,5.5 C 34.540152,5.3357842 31.847657,8.4611532 30.629482,7.3306773 29.353647,6.1466927 27.502113,5.5 27.528884,5.5"
     id="path2767"
     sodipodi:nodetypes="csc" />
  <path
     style="font-variation-settings:normal;opacity:1;vector-effect:none;fill:none;fill-opacity:1;stroke:#ffffff;stroke-width:1;stroke-linecap:round;stroke-linejoin:round;stroke-miterlimit:4;stroke-dasharray:none;stroke-dashoffset:0;stroke-opacity:1;-inkscape-stroke:none;stop-color:#000000;stop-opacity:1"
     d="M 5.5,31.33379 C 7.6088194,30.0248 9.0593625,28.680462 11.824701,29.258964"
     id="path3068"
     sodipodi:nodetypes="cc" />
  <path
     style="font-variation-settings:normal;opacity:1;vector-effect:none;fill:none;fill-opacity:1;stroke:#ffffff;stroke-width:1;stroke-linecap:round;stroke-linejoin:round;stroke-miterlimit:4;stroke-dasharray:none;stroke-dashoffset:0;stroke-opacity:1;-inkscape-stroke:none;stop-color:#000000;stop-opacity:1"
     d="M 11.824701,29.258964 C 11.009297,27.772241 10.523136,25.380101 10.039841,22.98008 9.3459455,24.762912 9.4345639,26.881107 9.9277565,29.172691 6.959255,17.759683 10.873351,11.33498 17.115538,6.5976096"
     id="path3198"
     sodipodi:nodetypes="cccc" />
  <path
     style="font-variation-settings:normal;opacity:1;vector-effect:none;fill:none;fill-opacity:1;stroke:#ffffff;stroke-width:1;stroke-linecap:round;stroke-linejoin:round;stroke-miterlimit:4;stroke-dasharray:none;stroke-dashoffset:0;stroke-opacity:1;-inkscape-stroke:none;stop-color:#000000;stop-opacity:1"
     d="m 33.411316,30.790059 1.20223,-1.307987 c 0.525215,4.662527 4.84034,6.723485 7.709529,11.840361"
     id="path3385"
     sodipodi:nodetypes="ccc" />
  <path
     style="font-variation-settings:normal;opacity:1;vector-effect:none;fill:none;fill-opacity:1;stroke:#ffffff;stroke-width:1;stroke-linecap:round;stroke-linejoin:round;stroke-miterlimit:4;stroke-dasharray:none;stroke-dashoffset:0;stroke-opacity:1;-inkscape-stroke:none;stop-color:#000000;stop-opacity:1"
     d="M 36.723357,5.5 C 36.46455,6.209028 35.62712,7.1539881 34.836653,8.3187251 37.084898,7.1184193 39.293722,6.469997 41.456984,6.4594561"
     id="path3553"
     sodipodi:nodetypes="ccc" />
  <path
     style="font-variation-settings:normal;opacity:1;vector-effect:none;fill:none;fill-opacity:1;stroke:#ffffff;stroke-width:1;stroke-linecap:round;stroke-linejoin:round;stroke-miterlimit:4;stroke-dasharray:none;stroke-dashoffset:0;stroke-opacity:1;-inkscape-stroke:none;stop-color:#000000;stop-opacity:1"
     d="m 30.269148,31.102904 c -1.964801,2.683742 -4.839438,3.762985 -5.121738,3.765622 -0.320449,0.003 -3.841113,-0.714103 -6.286317,-2.941549"
     id="path3721"
     sodipodi:nodetypes="csc" />
  <path
     style="font-variation-settings:normal;opacity:1;vector-effect:none;fill:none;fill-opacity:1;stroke:#ffffff;stroke-width:1;stroke-linecap:round;stroke-linejoin:round;stroke-miterlimit:4;stroke-dasharray:none;stroke-dashoffset:0;stroke-opacity:1;-inkscape-stroke:none;stop-color:#000000;stop-opacity:1"
     d="m 16.970563,5.5 0.144975,1.0976096"
     id="path4459"
     sodipodi:nodetypes="cc" />
  <path
     style="font-variation-settings:normal;opacity:1;vector-effect:none;fill:none;fill-opacity:1;stroke:#ffffff;stroke-width:1;stroke-linecap:round;stroke-linejoin:round;stroke-miterlimit:4;stroke-dasharray:none;stroke-dashoffset:0;stroke-opacity:1;-inkscape-stroke:none;stop-color:#000000;stop-opacity:1"
     d="m 28.865361,32.657937 c 0.241563,0.346816 4.837549,2.352791 5.959648,3.183538 1.150032,0.851428 2.211704,5.954365 3.495131,6.658525"
     id="path4461"
     sodipodi:nodetypes="csc" />
  <path
     style="font-variation-settings:normal;opacity:1;vector-effect:none;fill:none;fill-opacity:1;stroke:#ffffff;stroke-width:1;stroke-linecap:round;stroke-linejoin:round;stroke-miterlimit:4;stroke-dasharray:none;stroke-dashoffset:0;stroke-opacity:1;-inkscape-stroke:none;stop-color:#000000;stop-opacity:1"
     d="M 5.5,38.337795 C 7.1109893,41.40461 10.522819,40.215808 13.28414,42.5"
     id="path4781"
     sodipodi:nodetypes="cc" />
  <path
     style="font-variation-settings:normal;opacity:1;vector-effect:none;fill:none;fill-opacity:1;stroke:#ffffff;stroke-width:1;stroke-linecap:round;stroke-linejoin:round;stroke-miterlimit:4;stroke-dasharray:none;stroke-dashoffset:0;stroke-opacity:1;-inkscape-stroke:none;stop-color:#000000;stop-opacity:1"
     d="M 22.188347,42.5 C 21.204605,41.656232 16.454927,35.185311 13.479223,34.272582 10.92511,33.489166 8.6955491,35.200242 5.5,35.541269"
     id="path4911"
     sodipodi:nodetypes="csc" />
  <path
     style="font-variation-settings:normal;display:inline;opacity:1;vector-effect:none;fill:none;fill-opacity:1;stroke:#ffffff;stroke-width:1;stroke-linecap:round;stroke-linejoin:round;stroke-miterlimit:4;stroke-dasharray:none;stroke-dashoffset:0;stroke-opacity:1;-inkscape-stroke:none;stop-color:#000000;stop-opacity:1"
     d="m 23.378718,30.626562 c 1.193826,0.213101 2.062508,0.105266 2.474874,0.176777"
     id="path5421"
     sodipodi:nodetypes="cc" />
  <path
     style="font-variation-settings:normal;display:inline;opacity:1;vector-effect:none;fill:none;fill-opacity:1;stroke:#ffffff;stroke-width:1;stroke-linecap:round;stroke-linejoin:round;stroke-miterlimit:4;stroke-dasharray:none;stroke-dashoffset:0;stroke-opacity:1;-inkscape-stroke:none;stop-color:#000000;stop-opacity:1"
     d="m 17.434601,22.251766 c 1.126724,-0.911749 2.253369,-1.243114 3.64602,0.06629"
     id="path5513"
     sodipodi:nodetypes="cc" />
  <ellipse
     style="font-variation-settings:normal;display:inline;opacity:1;vector-effect:none;fill:none;fill-opacity:1;fill-rule:evenodd;stroke:#ffffff;stroke-width:1;stroke-linecap:round;stroke-linejoin:round;stroke-miterlimit:4;stroke-dasharray:none;stroke-dashoffset:0;stroke-opacity:1;-inkscape-stroke:none;stop-color:#000000;stop-opacity:1"
     id="path5746"
     cx="19.323902"
     cy="23.909048"
     rx="0.71815532"
     ry="0.66291261" />
  <ellipse
     style="font-variation-settings:normal;display:inline;vector-effect:none;fill:none;fill-opacity:1;fill-rule:evenodd;stroke:#ffffff;stroke-width:1;stroke-linecap:round;stroke-linejoin:round;stroke-miterlimit:4;stroke-dasharray:none;stroke-dashoffset:0;stroke-opacity:1;-inkscape-stroke:none;stop-color:#000000"
     id="path5746-3"
     cx="29.71875"
     cy="24.5625"
     rx="0.71815532"
     ry="0.66291261" />
  <path
     style="font-variation-settings:normal;display:inline;opacity:1;vector-effect:none;fill:none;fill-opacity:1;stroke:#ffffff;stroke-width:1;stroke-linecap:round;stroke-linejoin:round;stroke-miterlimit:4;stroke-dasharray:none;stroke-dashoffset:0;stroke-opacity:1;-inkscape-stroke:none;stop-color:#000000;stop-opacity:1"
     d="m 27.731844,23.467106 c 1.667549,-1.588879 3.110672,-1.329955 4.286835,1.126952"
     id="path5783"
     sodipodi:nodetypes="cc" />
  <path
     style="font-variation-settings:normal;display:inline;opacity:1;vector-effect:none;fill:none;fill-opacity:1;stroke:#ffffff;stroke-width:1;stroke-linecap:round;stroke-linejoin:round;stroke-miterlimit:4;stroke-dasharray:none;stroke-dashoffset:0;stroke-opacity:1;-inkscape-stroke:none;stop-color:#000000;stop-opacity:1"
     d="m 25.59375,26.0625 0.09375,1.15625"
     id="path6100" />
  <path
     style="font-variation-settings:normal;opacity:1;vector-effect:none;fill:none;fill-opacity:1;stroke:#ffffff;stroke-width:1;stroke-linecap:round;stroke-linejoin:round;stroke-miterlimit:4;stroke-dasharray:none;stroke-dashoffset:0;stroke-opacity:1;-inkscape-stroke:none;stop-color:#000000;stop-opacity:1"
     d="m 24.6875,9.28125 c -0.716327,1.939923 -0.926378,4.386122 -1.25,6.71875 -0.742857,-1.75 -1.697625,-3.5 -1,-5.25"
     id="path6102"
     sodipodi:nodetypes="ccc" />
  <path
     style="font-variation-settings:normal;opacity:1;vector-effect:none;fill:none;fill-opacity:1;stroke:#ffffff;stroke-width:1;stroke-linecap:round;stroke-linejoin:round;stroke-miterlimit:4;stroke-dasharray:none;stroke-dashoffset:0;stroke-opacity:1;-inkscape-stroke:none;stop-color:#000000;stop-opacity:1"
     d="M 37.894516,19.922774 C 37.184292,23.577085 35.702958,28.671182 35,28.34375 c 1.706174,-4.731052 1.059881,-9.168046 0.868152,-13.66186"
     id="path6270"
     sodipodi:nodetypes="ccc" />
  <path
     style="font-variation-settings:normal;opacity:1;vector-effect:none;fill:none;fill-opacity:1;stroke:#ffffff;stroke-width:1;stroke-linecap:round;stroke-linejoin:round;stroke-miterlimit:4;stroke-dasharray:none;stroke-dashoffset:0;stroke-opacity:1;-inkscape-stroke:none;stop-color:#000000;stop-opacity:1"
     d="M 16.12749,21.322709 C 15.34375,17.1875 15.78125,15.5 15.78125,15.5"
     id="path7514" />
  <path
     style="font-variation-settings:normal;opacity:1;vector-effect:none;fill:none;fill-opacity:1;stroke:#ffffff;stroke-width:1;stroke-linecap:round;stroke-linejoin:round;stroke-miterlimit:4;stroke-dasharray:none;stroke-dashoffset:0;stroke-opacity:1;-inkscape-stroke:none;stop-color:#000000;stop-opacity:1"
     d="M 18.65625,8.09375 C 8.1583247,17.012065 13.342257,26.583077 14.78125,30.625"
     id="path7516"
     sodipodi:nodetypes="cc" />
  <path
     style="font-variation-settings:normal;opacity:1;vector-effect:none;fill:none;fill-opacity:1;stroke:#ffffff;stroke-width:1;stroke-linecap:round;stroke-linejoin:round;stroke-miterlimit:4;stroke-dasharray:none;stroke-dashoffset:0;stroke-opacity:1;-inkscape-stroke:none;stop-color:#000000;stop-opacity:1"
     d="M 16.924303,28.557769 C 14.867802,27.054095 13.553919,25.302882 12.491649,23.467798"
     id="path7798"
     sodipodi:nodetypes="cc" />
</svg>

<svg xmlns="http://www.w3.org/2000/svg" viewBox="0 0 48 48"><defs><style>.a{fill:none;stroke:#fff;stroke-linecap:round;stroke-linejoin:round;}</style></defs><path class="a" d="M40.5,5.5H7.5a2,2,0,0,0-2,2v33a2,2,0,0,0,2,2h33a2,2,0,0,0,2-2V7.5A2,2,0,0,0,40.5,5.5Z"/><path class="a" d="M30.5339,14.0558a48.0066,48.0066,0,0,1-5.8646,11.1554c-.1557-2.9249-.5656-5.3887-.4781-7.9044a17.4677,17.4677,0,0,0-1.8486,5.8964,47.41,47.41,0,0,1-1.4342-9.8167,43.9781,43.9781,0,0,1-4.7809,7.9362c.6709,3.4063,1.6592,6.5839,4.43,8.4781a5.4554,5.4554,0,0,1-3.6335-1.243l6.12,10.6454c-3.9281-2.2311-7.63-5.7635-11.2191-9.9442"/><path class="a" d="M30.5339,14.0558c.9112,3.342,1.0821,6.46-.7968,8.9562"/><path class="a" d="M30.9615,15.9192c2.5021,4.4422,3.0322,14.414-2.595,15.0609,1.32.4307,2.8744.3031,5.2909-1.8805.0735,2.6518-1.8037,4.1163-3.6335,5.61"/><path class="a" d="M41.9274,6.0991a8.179,8.179,0,0,1-3.5848,2.2515c-1.572.324-5.1125,1.524-4.2709,3.06.5236.9554,5.4956,8.383,4.9084,17.7529-.19,3.0274,2.3507,8.9362,3.52,9.2193"/><path class="a" d="M34.1442,5.5c.396-.1642-2.2965,2.9612-3.5147,1.8307A10.6252,10.6252,0,0,0,27.5289,5.5"/><path class="a" d="M5.5,31.3338c2.1088-1.309,3.5594-2.6533,6.3247-2.0748"/><path class="a" d="M11.8247,29.259A24.86,24.86,0,0,1,10.04,22.98a10.8791,10.8791,0,0,0-.112,6.1926C6.9593,17.76,10.8734,11.335,17.1155,6.5976"/><path class="a" d="M33.4113,30.79l1.2022-1.308c.5253,4.6625,4.84,6.7235,7.71,11.84"/><path class="a" d="M36.7234,5.5a19.951,19.951,0,0,1-1.8867,2.8187A14.2253,14.2253,0,0,1,41.457,6.46"/><path class="a" d="M30.2691,31.1029a10.458,10.458,0,0,1-5.1217,3.7656,13.2154,13.2154,0,0,1-6.2863-2.9415"/><path class="a" d="M16.9706,5.5l.1449,1.0976"/><path class="a" d="M28.8654,32.6579c.2415.3469,4.8375,2.3528,5.96,3.1836,1.15.8514,2.2117,5.9543,3.4951,6.6585"/><path class="a" d="M5.5,38.3378c1.611,3.0668,5.0228,1.878,7.7841,4.1622"/><path class="a" d="M22.1883,42.5c-.9837-.8438-5.7334-7.3147-8.7091-8.2274C10.9251,33.4892,8.6955,35.2,5.5,35.5413"/><path class="a" d="M23.3787,30.6266a22.628,22.628,0,0,0,2.4749.1767"/><path class="a" d="M17.4346,22.2518c1.1267-.9118,2.2534-1.2431,3.646.0663"/><ellipse class="a" cx="19.3239" cy="23.909" rx="0.7182" ry="0.6629"/><ellipse class="a" cx="29.7188" cy="24.5625" rx="0.7182" ry="0.6629"/><path class="a" d="M27.7318,23.4671c1.6676-1.5889,3.1107-1.33,4.2869,1.127"/><path class="a" d="M25.5938,26.0625l.0937,1.1563"/><path class="a" d="M24.6875,9.2812A34.0461,34.0461,0,0,0,23.4375,16c-.7429-1.75-1.6976-3.5-1-5.25"/><path class="a" d="M37.8945,19.9228c-.71,3.6543-2.1915,8.7484-2.8945,8.421,1.7062-4.7311,1.06-9.1681.8682-13.6619"/><path class="a" d="M16.1275,21.3227c-.7837-4.1352-.3463-5.8227-.3463-5.8227"/><path class="a" d="M18.6562,8.0938c-10.4979,8.9183-5.3139,18.4893-3.875,22.5312"/><path class="a" d="M16.9243,28.5578a15.8482,15.8482,0,0,1-4.4327-5.09"/></svg>
